component-icons/svg/grid.svg

<?xml version="1.0" encoding="utf-8"?>
<!-- Generator: Adobe Illustrator 14.0.0, SVG Export Plug-In . SVG Version: 6.00 Build 43363)  -->
<!DOCTYPE svg PUBLIC "-//W3C//DTD SVG 1.1//EN" "http://www.w3.org/Graphics/SVG/1.1/DTD/svg11.dtd">
<svg version="1.1" id="Layer_1" xmlns="http://www.w3.org/2000/svg" xmlns:xlink="http://www.w3.org/1999/xlink" x="0px" y="0px"
	 width="24px" height="24px" viewBox="0 0 24 24" enable-background="new 0 0 24 24" xml:space="preserve">
<path fill="#818181" d="M6,20l2-2h3v2l2-2h3v2l2-2l2-2h-2v-3l2-2h-2V8l2-2h-2V4h-2v2h-3V4h-2v2H8V4H6v2H4v2h2v3H4v2h2v3H4v2h2V20z
	 M16,16h-3v-3h3V16z M16,8v3h-3V8H16z M8,8h3v3H8V8z M8,13h3v3H8V13z M0,0v2v20v1v1h20l4-4V2V0H0z M22,19.172L19.172,22H2V2h20
	V19.172z"/>
</svg>

<svg id="Layer_1" data-name="Layer 1" xmlns="http://www.w3.org/2000/svg" viewBox="0 0 24 24">
  <defs>
    <style>
      .cls-1 {
        fill: gray;
      }
    </style>
  </defs>
  <title>grid</title>
  <path class="cls-1" d="M0,0V24H20l4-4V0ZM22,19.17,19.17,22H2V2H22ZM6,20l2-2h3v2l2-2h3v2l4-4H18V13l2-2H18V8l2-2H18V4H16V6H13V4H11V6H8V4H6V6H4V8H6v3H4v2H6v3H4v2H6ZM13,8h3v3H13Zm0,5h3v3H13ZM8,8h3v3H8Zm0,5h3v3H8Z"/>
</svg>
